X:1
T:Mr. Barclay  (Braes of Enzie)
T:Mr. Barclay  (Braes of Enzie)
T:Alexander Walker
C:Alexander Walker
L:1/8
M:2/2
K:Dmin
V:1 treble 
V:1
 A, | D/D/D D>E F>GA>d | c>dc>A G<cE>C | D/D/D D>E F>G A>d | c>A G>E D/D/D D>A, | %5
 D/D/D D>E F>G A>d | f<ag>e c>de>g | a>fg>e f>de>c | e<cg>e d/d/dd || c | d/d/d d>c d>e a2 | %11
 g<cg>e c>de>c | d/d/d d>c d>e a2 | f>de>c (d2 c>)A | d/d/d d>c d>e a2 | g>cg>e (c2 c>)f | %16
 a>(fg>)(e f>)(de>)c | A>Gc>E D/D/DD || %18

